src/categories-icons-sprite/categories/svg-cat-prod-drink.svg

<svg width="25" height="35" viewBox="0 0 25 35" fill="none" xmlns="http://www.w3.org/2000/svg">
<path class="p-FFF5F5" d="M20.7743 30.8301L20.4258 35H4.18352L3.83496 30.8301L6.48039 28.7793H18.9081L20.7743 30.8301Z" fill="#B9DFFC"/>
<path class="p-FF9100" d="M1.94824 9.29663L3.83495 30.8297H20.7743L22.661 9.29663H1.94824Z" fill="#65B3E7"/>
<path class="p-EFE2DD" d="M18.9081 28.7793L20.7744 30.8301L20.4258 35H12.3047V28.7793H18.9081Z" fill="#A1D1FD"/>
<path class="p-FF641A" d="M22.6611 9.29663L20.7744 30.8297H12.3047V9.29663H22.6611Z" fill="#58ADE5"/>
<path class="p-596C76" d="M2.05078 0V7.07516H22.5585V2.92967L12.3046 1.46484L2.05078 0Z" fill="#65B3E7"/>
<path class="p-465A61" d="M22.5585 2.92954V7.07503H12.3047V1.75781L22.5585 2.92954Z" fill="#4D98CB"/>
<path class="p-FFF5F5" d="M0 5.19531V10.4687H24.6093V5.19531H0Z" fill="#B9DFFC"/>
<path class="p-EFE2DD" d="M24.6093 5.19531H12.3047V10.4687H24.6093V5.19531Z" fill="#A1D1FD"/>
<path class="p-465A61" d="M17.4316 20.5762C17.4316 23.6524 15.5244 26.2158 13.0634 26.6464L12.3047 25.4776L12.2227 25.3544L10.9512 26.5029C8.77741 25.8057 7.17773 23.4063 7.17773 20.5762C7.17773 17.5001 9.08495 14.9366 11.5459 14.5059L12.3047 15.8184L12.3866 15.9619L13.6581 14.6494C15.8319 15.3467 17.4316 17.7461 17.4316 20.5762Z" fill="#A1D1FD"/>
<path class="p-3B4A51" d="M13.0635 26.6464L12.3047 25.4775V15.8184L12.3867 15.9619L13.6581 14.6494C15.8319 15.3467 17.4316 17.7461 17.4316 20.5761C17.4316 23.6523 15.5244 26.2158 13.0635 26.6464Z" fill="#5FBEFF"/>
<path class="p-596C76" d="M13.5755 25.1288L13.0628 26.6464C12.8168 26.708 12.5707 26.7285 12.3041 26.7285C11.8325 26.7285 11.3812 26.6464 10.9506 26.5029L11.6273 24.4725C12.017 23.3445 11.935 22.1142 11.3812 21.0272C10.6019 19.4686 10.4789 17.6844 11.0327 16.0233L11.5453 14.5057C11.7914 14.4443 12.0375 14.4238 12.3041 14.4238C12.7757 14.4238 13.2269 14.5058 13.6575 14.6494L12.9808 16.6797C12.5912 17.8076 12.6731 19.0381 13.2269 20.125C14.0063 21.6835 14.1293 23.4677 13.5755 25.1288Z" fill="#65B3E7"/>
<path class="p-465A61" d="M13.2275 20.1249C14.0068 21.6835 14.1299 23.4677 13.5761 25.1288L13.0634 26.6464C12.8174 26.708 12.5713 26.7285 12.3047 26.7285V14.4238C12.7763 14.4238 13.2275 14.5058 13.6581 14.6494L12.9814 16.6797C12.5918 17.8075 12.6738 19.0381 13.2275 20.1249Z" fill="#4D98CB"/>
</svg>

<svg width="25" height="35" fill="none" xmlns="http://www.w3.org/2000/svg"><path class="p-FFF5F5" d="M20.774 30.83L20.426 35H4.184l-.349-4.17 2.645-2.05h12.428l1.866 2.05z" fill="#B9DFFC"/><path class="p-FF9100" d="M1.948 9.297L3.835 30.83h16.94L22.66 9.297H1.948z" fill="#65B3E7"/><path class="p-EFE2DD" d="M18.908 28.78l1.866 2.05-.348 4.17h-8.121v-6.22h6.603z" fill="#A1D1FD"/><path class="p-FF641A" d="M22.661 9.297L20.774 30.83h-8.47V9.297h10.357z" fill="#58ADE5"/><path class="p-596C76" d="M2.05 0v7.075h20.508V2.93L12.305 1.465 2.05 0z" fill="#65B3E7"/><path class="p-465A61" d="M22.558 2.93v4.145H12.305V1.758L22.558 2.93z" fill="#4D98CB"/><path class="p-FFF5F5" d="M0 5.195v5.274h24.61V5.195H0z" fill="#B9DFFC"/><path class="p-EFE2DD" d="M24.61 5.195H12.304v5.274h12.304V5.195z" fill="#A1D1FD"/><path class="p-465A61" d="M17.432 20.576c0 3.076-1.908 5.64-4.369 6.07l-.758-1.168-.082-.124-1.272 1.149c-2.174-.697-3.773-3.097-3.773-5.927 0-3.076 1.907-5.64 4.368-6.07l.759 1.312.082.144 1.271-1.313c2.174.698 3.774 3.097 3.774 5.927z" fill="#A1D1FD"/><path class="p-3B4A51" d="M13.063 26.646l-.758-1.169v-9.659l.082.144 1.271-1.313c2.174.698 3.774 3.097 3.774 5.927 0 3.076-1.908 5.64-4.368 6.07z" fill="#5FBEFF"/><path class="p-596C76" d="M13.575 25.129l-.512 1.517a3.07 3.07 0 01-.759.082 4.26 4.26 0 01-1.353-.225l.676-2.03a4.39 4.39 0 00-.246-3.446 6.524 6.524 0 01-.348-5.004l.512-1.517c.246-.062.492-.082.76-.082.47 0 .922.082 1.353.225l-.677 2.03a4.39 4.39 0 00.246 3.446 6.523 6.523 0 01.348 5.004z" fill="#65B3E7"/><path class="p-465A61" d="M13.227 20.125a6.524 6.524 0 01.35 5.004l-.514 1.517a3.07 3.07 0 01-.758.082V14.425c.471 0 .922.082 1.353.225l-.677 2.03a4.39 4.39 0 00.246 3.446z" fill="#4D98CB"/></svg>
